templates/main/source/images/ustanovka.svg

<?xml version="1.0" encoding="utf-8"?>
<svg width="50px" height="50px" viewBox="0 0 50 50" version="1.1" xmlns:xlink="http://www.w3.org/1999/xlink" xmlns="http://www.w3.org/2000/svg">
  <desc>Created with Lunacy</desc>
  <g id="ustanovka">
    <path d="M34.78 27.19C35.2927 26.6773 35.4929 25.9301 35.3052 25.2298C35.1176 24.5294 34.5706 23.9824 33.8702 23.7948C33.1699 23.6071 32.4227 23.8073 31.91 24.32L29.56 26.67L11.84 9.02C12.2642 8.08236 12.0653 6.98015 11.34 6.25L5.14 0L0 5.14L6.24 11.38C6.70093 11.8422 7.32724 12.1014 7.98 12.1C8.32481 12.0953 8.66506 12.0205 8.98 11.88L26.7 29.57L24.35 31.92C23.8373 32.4327 23.6371 33.1799 23.8248 33.8802C24.0124 34.5806 24.5594 35.1276 25.2598 35.3152C25.9601 35.5029 26.7073 35.3027 27.22 34.79L38.06 45.62C40.1575 47.6517 43.4966 47.6262 45.5628 45.5627C47.629 43.4993 47.6589 40.1601 45.63 38.06L34.78 27.19Z" transform="translate(1.0087891 2.7958984)" id="Path" fill="#A6A6A6" stroke="none" />
    <path d="M47.4988 8.96407C47.799 8.96407 48.0869 9.0835 48.2988 9.29601C50.1145 11.1259 50.3468 13.9981 48.8488 16.096L47.1488 18.536C45.5098 20.8586 42.8975 22.3029 40.0588 22.456L34.6588 22.746L30.4188 26.986L22.8488 19.416L27.0888 15.186L27.3788 9.77601C27.5319 6.9374 28.9762 4.32511 31.2988 2.68601L33.7388 0.986014C35.8399 -0.513443 38.7156 -0.281188 40.5488 1.53601C40.7614 1.74801 40.8808 2.03584 40.8808 2.33601C40.8808 2.63618 40.7614 2.92402 40.5488 3.13601L36.0488 7.63601C35.664 8.01229 35.4471 8.5278 35.4471 9.06601C35.4471 9.60423 35.664 10.1197 36.0488 10.496L39.3388 13.796C39.7151 14.1808 40.2306 14.3978 40.7688 14.3978C41.3071 14.3978 41.8226 14.1808 42.1988 13.796L46.6988 9.29601C46.9108 9.0835 47.1987 8.96407 47.4988 8.96407ZM17.6288 24.646L1.41884 40.856C-0.528898 42.966 -0.463513 46.2374 1.56698 48.2679C3.59748 50.2984 6.86883 50.3638 8.97884 48.416L25.1988 32.206L17.6288 24.646ZM5.54884 46.516C4.32277 46.516 3.32884 45.5221 3.32884 44.296C3.32884 43.0699 4.32277 42.076 5.54884 42.076C6.77492 42.076 7.76884 43.0699 7.76884 44.296C7.76884 45.5221 6.77492 46.516 5.54884 46.516Z" id="Combined-Shape" fill="#8C0014" fill-rule="evenodd" stroke="none" />
  </g>
</svg>

<svg width="50" height="50" viewBox="0 0 50 50" xmlns:xlink="http://www.w3.org/1999/xlink" xmlns="http://www.w3.org/2000/svg"><g id="ustanovka" stroke="none"><path d="M34.78 27.19a2.03 2.03 0 10-2.87-2.87l-2.35 2.35L11.84 9.02a2.48 2.48 0 00-.5-2.77L5.14 0 0 5.14l6.24 6.24a2.45 2.45 0 001.74.72 2.54 2.54 0 001-.22L26.7 29.57l-2.35 2.35a2.03 2.03 0 102.87 2.87l10.84 10.83a5.35 5.35 0 007.57-7.56L34.78 27.19z" transform="translate(1.009 2.796)" id="Path" fill="#A6A6A6"/><path d="M47.499 8.964c.3 0 .588.12.8.332a5.29 5.29 0 01.55 6.8l-1.7 2.44a9.29 9.29 0 01-7.09 3.92l-5.4.29-4.24 4.24-7.57-7.57 4.24-4.23.29-5.41a9.29 9.29 0 013.92-7.09l2.44-1.7a5.3 5.3 0 016.81.55 1.13 1.13 0 010 1.6l-4.5 4.5a2 2 0 000 2.86l3.29 3.3a2 2 0 002.86 0l4.5-4.5c.212-.212.5-.332.8-.332zm-29.87 15.682l-16.21 16.21a5.35 5.35 0 007.56 7.56l16.22-16.21-7.57-7.56zm-12.08 21.87a2.22 2.22 0 110-4.44 2.22 2.22 0 010 4.44z" id="Combined-Shape" fill="#8C0014" fill-rule="evenodd"/></g></svg>
